static/img/kroki/a2591cb8b3ab46e03138f604c43f5e9b.svg

<?xml version="1.0" encoding="us-ascii" standalone="no"?><svg xmlns="http://www.w3.org/2000/svg" xmlns:xlink="http://www.w3.org/1999/xlink" contentStyleType="text/css" height="152px" preserveAspectRatio="none" style="width:304px;height:152px;" version="1.1" viewBox="0 0 304 152" width="304px" zoomAndPan="magnify"><defs/><g><!--class gcp_autoscaler--><g id="elem_gcp_autoscaler"><rect codeLine="22" fill="#3D176E" height="39.7891" id="gcp_autoscaler" rx="2.5" ry="2.5" style="stroke:#000D19;stroke-width:0.5;" width="165" x="69.5" y="7"/><ellipse cx="84.5" cy="26.8945" fill="#ADD1B2" rx="11" ry="11" style="stroke:#181818;stroke-width:1.0;"/><path d="M87.4688,32.5352 Q86.8906,32.832 86.25,32.9727 Q85.6094,33.1289 84.9063,33.1289 Q82.4063,33.1289 81.0781,31.4883 Q79.7656,29.832 79.7656,26.707 Q79.7656,23.582 81.0781,21.9258 Q82.4063,20.2695 84.9063,20.2695 Q85.6094,20.2695 86.25,20.4258 Q86.9063,20.582 87.4688,20.8789 L87.4688,23.5977 Q86.8438,23.0195 86.25,22.7539 Q85.6563,22.4727 85.0313,22.4727 Q83.6875,22.4727 83,23.5508 Q82.3125,24.6133 82.3125,26.707 Q82.3125,28.8008 83,29.8789 Q83.6875,30.9414 85.0313,30.9414 Q85.6563,30.9414 86.25,30.6758 Q86.8438,30.3945 87.4688,29.8164 L87.4688,32.5352 Z " fill="#000000"/><text fill="#D9B8FF" font-family="Helvetica" font-size="17" lengthAdjust="spacing" textLength="123" x="103.5" y="32.7798">gcp_autoscaler</text></g><!--class gcp_instance_group_manager--><g id="elem_gcp_instance_group_manager"><rect codeLine="24" fill="#3D176E" height="39.7891" id="gcp_instance_group_manager" rx="2.5" ry="2.5" style="stroke:#000D19;stroke-width:0.5;" width="290" x="7" y="106.79"/><ellipse cx="22" cy="126.6845" fill="#ADD1B2" rx="11" ry="11" style="stroke:#181818;stroke-width:1.0;"/><path d="M24.9688,132.3252 Q24.3906,132.622 23.75,132.7627 Q23.1094,132.9189 22.4063,132.9189 Q19.9063,132.9189 18.5781,131.2783 Q17.2656,129.622 17.2656,126.497 Q17.2656,123.372 18.5781,121.7158 Q19.9063,120.0595 22.4063,120.0595 Q23.1094,120.0595 23.75,120.2158 Q24.4063,120.372 24.9688,120.6689 L24.9688,123.3877 Q24.3438,122.8095 23.75,122.5439 Q23.1563,122.2627 22.5313,122.2627 Q21.1875,122.2627 20.5,123.3408 Q19.8125,124.4033 19.8125,126.497 Q19.8125,128.5908 20.5,129.6689 Q21.1875,130.7314 22.5313,130.7314 Q23.1563,130.7314 23.75,130.4658 Q24.3438,130.1845 24.9688,129.6064 L24.9688,132.3252 Z " fill="#000000"/><text fill="#D9B8FF" font-family="Helvetica" font-size="17" lengthAdjust="spacing" textLength="248" x="41" y="132.5698">gcp_instance_group_manager</text></g><!--link gcp_autoscaler to gcp_instance_group_manager--><g id="link_gcp_autoscaler_gcp_instance_group_manager"><path codeLine="26" d="M152,47.22 C152,64.36 152,83.27 152,100.41 " fill="none" id="gcp_autoscaler-to-gcp_instance_group_manager" style="stroke:#1A83AF;stroke-width:2.0;"/><polygon fill="#1A83AF" points="152,106.41,156,97.41,152,101.41,148,97.41,152,106.41" style="stroke:#1A83AF;stroke-width:2.0;"/></g><!--SRC=[XP31IiD048RlVOg5dWk9GTjSX5WeUYbYlOcKwUviiYJP3RDJInNVtSPMMHERNkV_PkQRAOn2WNN3Ur5ZlK7o8ryQsm11BJ8Yjvkxof4OQmqwcNR3XRDy4LX2ZU8UgpTa8w5BF1T6bXQz5rT1T0UopCbjhJgEPmBh3n5Q3gXv1Tvdp6GsMyP0HgMRcTPTiZjqdAXuUeCzp952EY5H5AauxI8NLmtU_Kkip3kAE7pQqZ7sD7ihlgb1ovO897k7_kHd7Hz1AMDpSHtKdevEP97-r5S5ABThQGsL3zTuHaB7-mRdlQimdIaz_HT-E0VBzdCYbyqQjkoyXEgWyZ7w309ZFOELk6xxctKD5l8JrEcRl8pZR9PaYzV9xK3h5m00]--></g></svg>

<svg xmlns="http://www.w3.org/2000/svg" width="304" height="152" viewBox="0 0 304 152"><rect width="165" height="39.789" x="69.5" y="7" fill="#3D176E" rx="2.5" ry="2.5" style="stroke:#000d19;stroke-width:.5"/><circle cx="84.5" cy="26.895" r="11" fill="#ADD1B2" style="stroke:#181818;stroke-width:1"/><path d="M87.469 32.535q-.578.297-1.219.438-.64.156-1.344.156-2.5 0-3.828-1.64-1.312-1.657-1.312-4.782t1.312-4.781q1.328-1.656 3.828-1.656.703 0 1.344.156.656.156 1.219.453v2.719q-.625-.578-1.219-.844-.594-.281-1.219-.281-1.344 0-2.031 1.078-.687 1.062-.687 3.156T83 29.879q.688 1.062 2.031 1.062.625 0 1.219-.265.594-.281 1.219-.86z"/><text x="103.5" y="32.78" fill="#D9B8FF" font-family="Helvetica" font-size="17" textLength="123">gcp_autoscaler</text><rect width="290" height="39.789" x="7" y="106.79" fill="#3D176E" rx="2.5" ry="2.5" style="stroke:#000d19;stroke-width:.5"/><circle cx="22" cy="126.684" r="11" fill="#ADD1B2" style="stroke:#181818;stroke-width:1"/><path d="M24.969 132.325q-.578.297-1.219.438-.64.156-1.344.156-2.5 0-3.828-1.64-1.312-1.657-1.312-4.782t1.312-4.781q1.328-1.656 3.828-1.656.703 0 1.344.156.656.156 1.219.453v2.719q-.625-.579-1.219-.844-.594-.281-1.219-.281-1.343 0-2.031 1.078-.687 1.062-.687 3.156t.687 3.172q.688 1.062 2.031 1.062.625 0 1.219-.265.594-.281 1.219-.86z"/><text x="41" y="132.57" fill="#D9B8FF" font-family="Helvetica" font-size="17" textLength="248">gcp_instance_group_manager</text><path fill="none" d="M152 47.22v53.19" style="stroke:#1a83af;stroke-width:2"/><path fill="#1A83AF" d="m152 106.41 4-9-4 4-4-4z" style="stroke:#1a83af;stroke-width:2"/></svg>
